icons/mickey.svg

<svg width="24" height="24" viewBox="0 0 24 24" fill="none" xmlns="http://www.w3.org/2000/svg">
<path fill-rule="evenodd" clip-rule="evenodd" d="M5.5 4C4.11929 4 3 5.11929 3 6.5C3 7.88071 4.11929 9 5.5 9C5.59003 9 5.67871 8.99528 5.76583 8.98611C6.36574 8.24103 7.09665 7.60568 7.92405 7.11493C7.97357 6.9189 8 6.71305 8 6.5C8 5.11929 6.88071 4 5.5 4ZM9.99339 6.25399C9.86565 3.88312 7.90274 2 5.5 2C3.01472 2 1 4.01472 1 6.5C1 8.68322 2.55473 10.5033 4.61743 10.9135C4.21975 11.8637 4 12.9068 4 14C4 18.4183 7.58172 22 12 22C16.4183 22 20 18.4183 20 14C20 12.9068 19.7803 11.8637 19.3826 10.9135C21.4453 10.5033 23 8.68322 23 6.5C23 4.01472 20.9853 2 18.5 2C16.0973 2 14.1343 3.88312 14.0066 6.25399C13.3649 6.08817 12.6923 6 12 6C11.3077 6 10.6351 6.08816 9.99339 6.25399ZM16.0759 7.11493C16.9034 7.60568 17.6343 8.24103 18.2342 8.98611C18.3213 8.99528 18.41 9 18.5 9C19.8807 9 21 7.88071 21 6.5C21 5.11929 19.8807 4 18.5 4C17.1193 4 16 5.11929 16 6.5C16 6.71305 16.0264 6.9189 16.0759 7.11493ZM12 8C10.9932 8 10.0471 8.24716 9.21622 8.68327C8.39071 9.11653 7.67769 9.73703 7.13429 10.4885C6.42047 11.4755 6 12.6872 6 14C6 17.3137 8.68629 20 12 20C15.3137 20 18 17.3137 18 14C18 12.6872 17.5795 11.4755 16.8657 10.4885C16.3223 9.73703 15.6093 9.11653 14.7838 8.68327C13.9529 8.24716 13.0068 8 12 8Z" fill="black"/>
</svg>

<svg
  width="24"
  height="24"
  viewBox="0 0 24 24"
  xmlns="http://www.w3.org/2000/svg"
>
  <path
    fill-rule="evenodd"
    clip-rule="evenodd"
    d="M5.5 4a2.5 2.5 0 1 0 .266 4.986c.6-.745 1.33-1.38 2.158-1.871A2.5 2.5 0 0 0 5.5 4zm4.493 2.254a4.5 4.5 0 1 0-5.376 4.66 8 8 0 1 0 14.765 0A4.502 4.502 0 0 0 18.5 2a4.5 4.5 0 0 0-4.493 4.254A8.012 8.012 0 0 0 12 6c-.692 0-1.365.088-2.007.254zm6.083.86a8.034 8.034 0 0 1 2.158 1.872 2.5 2.5 0 1 0-2.158-1.871zM12 8a5.97 5.97 0 0 0-2.784.683 6.032 6.032 0 0 0-2.082 1.806A6 6 0 1 0 12 8z"
  />
</svg>
